X:076 
T:Humors of Tirconnell* (reel), The
F:file ID: cre.5/076hu_tirc
B:CRE5.203 (gan ainm)
N:Breathnach got this tune from Tommy Peoples, but it
sounds more like a Sean Maguire tune to me!
M:4/4
Q:180
R:reel
K:A
d|eaga bagf|eagf fedc|~B3c dB~B2|d2fB B2fB|
eaga bagf|eagf fedc|ABcd efed|cAAB cAA:|
|:e|cAEC A,CEA|ceag fedc|B3c dB~B2|d2fB b2fB|
cAEC A,CEA|ceag fedc|ABcd efed|1 cAAB cAA:|
[2 cAAB cAA2-|A8||

%%%

